assets/images/people-outline.svg

<svg height="512" viewBox="0 0 512 512" width="512" xmlns="http://www.w3.org/2000/svg"><g fill="none" stroke="#fff" stroke-width="32"><path d="m402 168c-2.93 40.67-33.1 72-66 72s-63.12-31.32-66-72c-3-42.31 26.37-72 66-72s69 30.46 66 72z" stroke-linecap="round" stroke-linejoin="round"/><path d="m336 304c-65.17 0-127.84 32.37-143.54 95.41-2.08 8.34 3.15 16.59 11.72 16.59h263.65c8.57 0 13.77-8.25 11.72-16.59-15.7-64.05-78.37-95.41-143.55-95.41z" stroke-miterlimit="10"/><g stroke-linecap="round"><path d="m200 185.94c-2.34 32.48-26.72 58.06-53 58.06s-50.7-25.57-53-58.06c-2.39-33.79 21.34-57.94 53-57.94s55.39 24.77 53 57.94z" stroke-linejoin="round"/><path d="m206 306c-18.05-8.27-37.93-11.45-59-11.45-52 0-102.1 25.85-114.65 76.2-1.65 6.66 2.53 13.25 9.37 13.25h112.28" stroke-miterlimit="10"/></g></g></svg>

<svg xmlns='http://www.w3.org/2000/svg' width='512' height='512' viewBox='0 0 512 512'><title>ionicons-v5-j</title><path d='M402,168c-2.93,40.67-33.1,72-66,72s-63.12-31.32-66-72c-3-42.31,26.37-72,66-72S405,126.46,402,168Z' style='fill:none;stroke:#fff;stroke-linecap:round;stroke-linejoin:round;stroke-width:32px'/><path d='M336,304c-65.17,0-127.84,32.37-143.54,95.41-2.08,8.34,3.15,16.59,11.72,16.59H467.83c8.57,0,13.77-8.25,11.72-16.59C463.85,335.36,401.18,304,336,304Z' style='fill:none;stroke:#fff;stroke-miterlimit:10;stroke-width:32px'/><path d='M200,185.94C197.66,218.42,173.28,244,147,244S96.3,218.43,94,185.94C91.61,152.15,115.34,128,147,128S202.39,152.77,200,185.94Z' style='fill:none;stroke:#fff;stroke-linecap:round;stroke-linejoin:round;stroke-width:32px'/><path d='M206,306c-18.05-8.27-37.93-11.45-59-11.45-52,0-102.1,25.85-114.65,76.2C30.7,377.41,34.88,384,41.72,384H154' style='fill:none;stroke:#fff;stroke-linecap:round;stroke-miterlimit:10;stroke-width:32px'/></svg>
